dapp/src/images/info-icon.svg

<svg fill="none" height="20" viewBox="0 0 20 20" width="20" xmlns="http://www.w3.org/2000/svg"><g fill="#687692"><path clip-rule="evenodd" d="m9.78467 2.59641c-4.29276 0-7.77273 3.47997-7.77273 7.77269 0 4.2928 3.47997 7.7728 7.77273 7.7728 4.29273 0 7.77273-3.48 7.77273-7.7728 0-4.29272-3.48-7.77269-7.77273-7.77269zm-9.500002 7.77269c0-5.24666 4.253292-9.499959 9.500002-9.499959 5.24673 0 9.50003 4.253299 9.50003 9.499959 0 5.2467-4.2533 9.5-9.50003 9.5-5.24671 0-9.500002-4.2533-9.500002-9.5z" fill-rule="evenodd"/><path d="m9.43911 8.28545c.73629 0 1.33319-.59687 1.33319-1.33315s-.5969-1.33316-1.33319-1.33316c-.73628 0-1.33315.59688-1.33315 1.33316s.59687 1.33315 1.33315 1.33315z"/><path d="m11.5127 14.4881c0 .3486-.2826.6312-.6312.6312h-2.19219c-.34861 0-.6312-.2826-.6312-.6312v-.4535c0-.1743.14129-.3156.3156-.3156.1743 0 .3156-.1413.3156-.3156v-1.7543c0-.1719-.13939-.3113-.31134-.3113-.17194 0-.31133-.1394-.31133-.3113v-.4663c0-.3439.27877-.6227.62267-.6227h1.87659c.1743 0 .3156.1413.3156.3156v3.1503c0 .1743.1412.3156.3156.3156.1743 0 .3156.1413.3156.3156z"/></g></svg>

<svg width="20" height="20" viewBox="0 0 20 20" fill="none" xmlns="http://www.w3.org/2000/svg">
<path fill-rule="evenodd" clip-rule="evenodd" d="M9.78467 2.59641C5.49191 2.59641 2.01194 6.07638 2.01194 10.3691C2.01194 14.6619 5.49191 18.1419 9.78467 18.1419C14.0774 18.1419 17.5574 14.6619 17.5574 10.3691C17.5574 6.07638 14.0774 2.59641 9.78467 2.59641ZM0.284668 10.3691C0.284668 5.12244 4.53796 0.869141 9.78467 0.869141C15.0314 0.869141 19.2847 5.12244 19.2847 10.3691C19.2847 15.6158 15.0314 19.8691 9.78467 19.8691C4.53796 19.8691 0.284668 15.6158 0.284668 10.3691Z" fill="#687692"/>
<path d="M9.43911 8.28545C10.1754 8.28545 10.7723 7.68858 10.7723 6.9523C10.7723 6.21602 10.1754 5.61914 9.43911 5.61914C8.70283 5.61914 8.10596 6.21602 8.10596 6.9523C8.10596 7.68858 8.70283 8.28545 9.43911 8.28545Z" fill="#687692"/>
<path d="M11.5127 14.4881C11.5127 14.8367 11.2301 15.1193 10.8815 15.1193H8.68931C8.3407 15.1193 8.05811 14.8367 8.05811 14.4881V14.0346C8.05811 13.8603 8.1994 13.719 8.37371 13.719C8.54801 13.719 8.68931 13.5777 8.68931 13.4034V11.6491C8.68931 11.4772 8.54992 11.3378 8.37797 11.3378C8.20603 11.3378 8.06664 11.1984 8.06664 11.0265V10.5602C8.06664 10.2163 8.34541 9.9375 8.68931 9.9375H10.5659C10.7402 9.9375 10.8815 10.0788 10.8815 10.2531V13.4034C10.8815 13.5777 11.0227 13.719 11.1971 13.719C11.3714 13.719 11.5127 13.8603 11.5127 14.0346V14.4881Z" fill="#687692"/>
</svg>
